src/lib/packages/icons/src/assets/filled/signs-direction.svg

<svg width="24" height="24" viewBox="0 0 24 24" fill="none" xmlns="http://www.w3.org/2000/svg">
<path d="M19.799 6.90088L17.113 8.90088C17.027 8.96488 16.922 9 16.814 9H7.5C6.5 9 6 8.5 6 7.5V5.5C6 4.5 6.5 4 7.5 4H11.25V3C11.25 2.59 11.59 2.25 12 2.25C12.41 2.25 12.75 2.59 12.75 3V4H16.814C16.922 4 17.026 4.03512 17.113 4.09912L19.799 6.09912C20.067 6.29912 20.067 6.70088 19.799 6.90088ZM16.5 12H12.75V10.5H11.25V12H7.186C7.078 12 6.97399 12.0351 6.88699 12.0991L4.201 14.0991C3.932 14.2991 3.932 14.7009 4.201 14.9009L6.88699 16.9009C6.97299 16.9649 7.078 17 7.186 17H11.25V20.25H9C8.586 20.25 8.25 20.586 8.25 21C8.25 21.414 8.586 21.75 9 21.75H15C15.414 21.75 15.75 21.414 15.75 21C15.75 20.586 15.414 20.25 15 20.25H12.75V17H16.5C17.5 17 18 16.5 18 15.5V13.5C18 12.5 17.5 12 16.5 12Z" fill="currentColor"/>
</svg>

<svg xmlns="http://www.w3.org/2000/svg" width="24" height="24" fill="none"><path fill="currentColor" d="m19.799 6.9-2.686 2a.501.501 0 0 1-.299.1H7.5C6.5 9 6 8.5 6 7.5v-2C6 4.5 6.5 4 7.5 4h3.75V3c0-.41.34-.75.75-.75s.75.34.75.75v1h4.064c.108 0 .212.035.299.1l2.686 2a.5.5 0 0 1 0 .8ZM16.5 12h-3.75v-1.5h-1.5V12H7.186a.504.504 0 0 0-.299.1l-2.686 2a.5.5 0 0 0 0 .8l2.686 2c.086.065.191.1.299.1h4.064v3.25H9a.75.75 0 0 0 0 1.5h6a.75.75 0 0 0 0-1.5h-2.25V17h3.75c1 0 1.5-.5 1.5-1.5v-2c0-1-.5-1.5-1.5-1.5Z"/></svg>
